X: 10241
Q: "Slow"
M: C
L: 1/8
K: Em
e>ged BAB^d | e2E>F E2 :|\
|: B>c |\
d3e {e}d2cB | g2d>e {e}d2g>f |
e>^def g>fga | b2e>f {f}e2d>c |\
e>ged BAB^d | e2E>F E2 :|


